X: 20683
M: 2/4
L: 1/8
K: G
g |\
dB AG | GB D>E | GG c>B | B2 Ag |\
dB AG | GB D>E | GB A>G | G2 z |]
c>B cd | ed g>e | dB A/B/d | e3 g |\
dB AG | GB D>E | GB A>G | G3 |]


